X: 11774
T: Elizabeth Kelly's Delight
R: slip jig
M: 9/8
K: Adorian
[D3 A3] [D2 A2] B AGE|[D2 A2] [G,E] [G,2 G2] [G,E] [G,D][G,E][G,G]|[D3 A3] [D2 A2] B AGE|[G,3G3] [G,2G2][G, E] [G,D][G,E][G,G]:|
c2 A BAG AGE|c2A BGE DEG|c2A BAG AGE|[G,3G3] [G,2G2][G, E] [G,D][G,E][G,G]:|

